X:47
T:Picknickery. JGi.047
T:Oh What A Row,aka. JGi.047
T:Adventures of a Steam Packet,aka. JGi.047
M:C
L:1/8
Q:1/4=140
S:Joshua Gibbons MS,1823,Tealby,Lincs.
R:reel
O:Tealby,Lincolnshire
Z:VMP/R.Greig, 2009
K:D
d2AFd2AF|.d.f.e.d (dc)(BA)|.B.d.c.B (BA)(GF)|G2A2d4:|
f2(fd) fffd|ffaf dddd|e2ec eeec|ABAG FED2|
(fa).a.a .a.a.a.a|ad’c’b bag2|ggbg afed|dbag (fe)d2|
d2(AF)d2(AF)|dfed (dc)(BA)|BdcB (BA)(GF)|G2A2d4|]

